.icons/oomox-ad/48x48/apps/bomi.svg

<svg xmlns="http://www.w3.org/2000/svg" width="48" height="48" version="1">
 <rect style="opacity:0.2" width="40" height="40" x="4" y="5" rx="12" ry="12"/>
 <rect style="fill:#e75177" width="40" height="40" x="4" y="4" rx="12" ry="12"/>
 <path style="opacity:0.2" d="m 24,13 c -0.670242,6.87e-4 -1.339249,0.05753 -2,0.169922 V 29.5 A 1.5,1.5 0 0 1 20.5,31 1.5,1.5 0 0 1 19,29.5 V 14.107422 C 14.73982,16.060068 12.006138,20.313645 12,25 c 0,6.627417 5.372583,12 12,12 6.627417,0 12,-5.372583 12,-12 0,-6.627417 -5.372583,-12 -12,-12 z m -0.496094,6 c 0.08341,7.5e-4 0.165324,0.02425 0.238282,0.06836 l 9,5.455079 c 0.342277,0.207996 0.342276,0.745128 0,0.953124 l -9,5.455079 C 23.409403,31.132359 23.000977,30.869908 23,30.455078 V 19.544922 C 23.000251,19.242154 23.226377,18.997608 23.503906,19 Z"/>
 <path style="fill:#ffffff" d="M 24 12 C 23.329758 12.000687 22.660751 12.057532 22 12.169922 L 22 28.5 A 1.5 1.5 0 0 1 20.5 30 A 1.5 1.5 0 0 1 19 28.5 L 19 13.107422 C 14.73982 15.060068 12.006138 19.313645 12 24 C 12 30.627417 17.372583 36 24 36 C 30.627417 36 36 30.627417 36 24 C 36 17.372583 30.627417 12 24 12 z M 23.503906 18 C 23.587316 18.00075 23.66923 18.024249 23.742188 18.068359 L 32.742188 23.523438 C 33.084465 23.731434 33.084464 24.268566 32.742188 24.476562 L 23.742188 29.931641 C 23.409403 30.132359 23.000977 29.869908 23 29.455078 L 23 18.544922 C 23.000251 18.242154 23.226377 17.997608 23.503906 18 z"/>
 <path style="fill:#ffffff;opacity:0.2" d="M 16 4 C 9.352 4 4 9.352 4 16 L 4 17 C 4 10.352 9.352 5 16 5 L 32 5 C 38.648 5 44 10.352 44 17 L 44 16 C 44 9.352 38.648 4 32 4 L 16 4 z"/>
</svg>

<svg xmlns="http://www.w3.org/2000/svg" width="48" height="48" version="1">
 <rect style="opacity:0.2" width="40" height="40" x="4" y="5" rx="12" ry="12"/>
 <rect style="fill:#e75177" width="40" height="40" x="4" y="4" rx="12" ry="12"/>
 <path opacity=".2" d="m24 13a12 12 0 0 0 -2 0.16992v16.83c0 0.554-0.446 1-1 1h-1c-0.554 0-1-0.446-1-1v-15.893a12 12 0 0 0 -7 10.893 12 12 0 0 0 12 12 12 12 0 0 0 12 -12 12 12 0 0 0 -12 -12zm-0.49609 6a0.50005 0.54551 0 0 1 0.23828 0.06836l9 5.4551a0.50005 0.54551 0 0 1 0 0.95312l-9 5.4551a0.50005 0.54551 0 0 1 -0.742 -0.476v-10.91a0.50005 0.54551 0 0 1 0.504 -0.545z"/>
 <path fill="#fff" d="m24 12a12 12 0 0 0 -2 0.16992v16.83c0 0.554-0.446 1-1 1h-1c-0.554 0-1-0.446-1-1v-15.893a12 12 0 0 0 -7 10.893 12 12 0 0 0 12 12 12 12 0 0 0 12 -12 12 12 0 0 0 -12 -12zm-0.49609 6a0.50005 0.54551 0 0 1 0.23828 0.06836l9 5.4551a0.50005 0.54551 0 0 1 0 0.95312l-9 5.4551a0.50005 0.54551 0 0 1 -0.742 -0.476v-10.91a0.50005 0.54551 0 0 1 0.504 -0.545z"/>
 <path style="fill:#ffffff;opacity:0.2" d="M 16 4 C 9.352 4 4 9.352 4 16 L 4 17 C 4 10.352 9.352 5 16 5 L 32 5 C 38.648 5 44 10.352 44 17 L 44 16 C 44 9.352 38.648 4 32 4 L 16 4 z"/>
</svg>
